!!!OTL: REGE REGE SCHUURE
!!!ARE: Europa, Mitteleuropa, Deutschland, Niederrhein, Meurs
!!!SCT: E1841
!!!YEM: Copyright 1995, estate of Helmut Schaffrath.
**kern
*ICvox
*Ivox
*M2/4
*k[f#]
*G:
=1
{8g
8g
8a
8a
=2
4b
8g
8d}
=3
{8g
8g
8a
8a
=4
4b
8g
8d}
=5
{8b
8b
16a
16a
8g
=6
8b
8b
8b}
{8b
=7
8a
8a
8a
8a
=8
4b
4b}
=9
{8a
8a
8a
8b
=10
8g
8g
4g}
==
!!!AGN: Kinder - Lied, Regen - Lied
!!!ONB: ESAC (Essen Associative Code) Database: ERK3
!!!AMT: simple duple
!!!AIN: vox
!!!EED: Helmut Schaffrath
!!!EEV: 1.0
*-
